X:902
T:Ceol Anna
C:Joe Buchanan's Scottish Tome - Page 496.0
I:496 0
Z:Carl Allison
C:Phil Cunningham
R:Waltz
L:1/8
M:3/4
K:C
E((3E/E/E/) | "Am"e4 E((3E/E/E/) | "Em"d4 E((3E/E/E/) | "F"c4A2 | "C"GE- E4 |
"Am"E4 EG | "C"E4 DC | "Em"EG- G4 | "F"A4 E((3E/E/E/) |
"Am"e4 E((3E/E/E/) | "Em"d4 E((3E/E/E/) | "F"c4 A2 | "Em"GE- E4 |
"Am"E4 EG | "C"E4 DC | "Em"EG- G4 | "F"A6 |]
"Am"e2> d2 e2 | "F"a4 a2 | "G"g4 d2 | "Am"eA- A4 |
"F"e2> f2  ec| "Dm"d2> e2 d/c/A | "F"c4e2 | "Em"A/G/E- E2 E((3E/E/E/) |
"C"e4 G((3G/G/G/) | "C"e4 G((3G/G/G/) | "F"c4 A2 | "C"GE- E4 |
"Am"E4 EG | "C"E4 ((3D/E/D/)C | "Em"EG- G4 | "F"A6 |]

